assets/Alarm clock/Flat/alarm_clock_flat.svg

<svg width="32" height="32" viewBox="0 0 32 32" fill="none" xmlns="http://www.w3.org/2000/svg">
<path d="M23.2066 24.5794C21 25.5 19.05 26 16.5 26C13.7116 26 12 25.5 9.297 24.1399L6.71138 26.3768C5.31666 27.5881 6.10934 30 7.90542 30H24.0901C25.8862 30 26.6889 27.5881 25.2842 26.3768L23.2066 24.5794Z" fill="#D3D3D3"/>
<path d="M16.5 27C22.299 27 27 22.299 27 16.5C27 10.701 22.299 6 16.5 6C10.701 6 6 10.701 6 16.5C6 22.299 10.701 27 16.5 27Z" fill="#F8312F"/>
<path d="M16.5 24C20.6421 24 24 20.6422 24 16.5C24 12.3579 20.6421 9 16.5 9C12.3579 9 9 12.3579 9 16.5C9 20.6422 12.3579 24 16.5 24Z" fill="white"/>
<path d="M4.27314 9.22796C3.53751 6.94375 4.31186 4.34482 6.30578 2.93369C8.2997 1.52256 10.8937 1.75607 12.6263 3.32963C13.1684 3.82708 13.1103 4.73059 12.5198 5.14682L5.91862 9.8066C5.31851 10.2228 4.50544 9.9386 4.27314 9.22796Z" fill="#F9C23C"/>
<path d="M28.7269 9.22796C29.4625 6.94375 28.6882 4.34482 26.6942 2.93369C24.7003 1.52256 22.1063 1.75607 20.3737 3.32963C19.8316 3.82708 19.8897 4.73059 20.4802 5.14682L27.0814 9.8066C27.6815 10.2228 28.4946 9.9386 28.7269 9.22796Z" fill="#F9C23C"/>
<path d="M15.1679 16.4454C15.4743 15.9859 16.0952 15.8617 16.5547 16.1681L19.5547 18.1681C20.0142 18.4744 20.1384 19.0953 19.832 19.5548C19.5257 20.0143 18.9048 20.1385 18.4453 19.8322L15.4453 17.8322C14.9858 17.5258 14.8616 16.9049 15.1679 16.4454Z" fill="#F8312F"/>
<path d="M16 11C16.5523 11 17 11.4477 17 12V17C17 17.5523 16.5523 18 16 18C15.4477 18 15 17.5523 15 17V12C15 11.4477 15.4477 11 16 11Z" fill="#212121"/>
</svg>

<svg xmlns="http://www.w3.org/2000/svg" width="32" height="32" fill="none"><path fill="#D3D3D3" d="M23.207 24.58C21 25.5 19.05 26 16.5 26c-2.788 0-4.5-.5-7.203-1.86l-2.586 2.237C5.317 27.588 6.11 30 7.905 30H24.09c1.796 0 2.599-2.412 1.194-3.623l-2.077-1.798Z"/><path fill="#F8312F" d="M16.5 27C22.299 27 27 22.299 27 16.5S22.299 6 16.5 6 6 10.701 6 16.5 10.701 27 16.5 27Z"/><path fill="#fff" d="M16.5 24a7.5 7.5 0 1 0 0-15 7.5 7.5 0 0 0 0 15Z"/><path fill="#F9C23C" d="M4.273 9.228c-.735-2.284.039-4.883 2.033-6.294 1.994-1.411 4.588-1.178 6.32.396.542.497.484 1.4-.106 1.817l-6.601 4.66c-.6.416-1.414.132-1.646-.579ZM28.727 9.228c.735-2.284-.039-4.883-2.033-6.294-1.994-1.411-4.588-1.178-6.32.396-.542.497-.484 1.4.106 1.817l6.601 4.66c.6.416 1.414.132 1.646-.579Z"/><path fill="#F8312F" d="M15.168 16.445a1 1 0 0 1 1.387-.277l3 2a1 1 0 1 1-1.11 1.664l-3-2a1 1 0 0 1-.277-1.387Z"/><path fill="#212121" d="M16 11a1 1 0 0 1 1 1v5a1 1 0 1 1-2 0v-5a1 1 0 0 1 1-1Z"/></svg>
